X:15
T:Harlequin Gambols. THO5.015
M:C|
L:1/8
B:Thompson's Complete Collection of 200 Favourite Dances Vol.5
F:https://www.libraryofdance.org/manuals/1780c-Thompson-Compleat-5.pdf
Z:vmp. Peter Dunk 2024
Q:1/4=140
K:Bb
(3FGA|B2B2 Bdce|d2d2 dfeg|fbag fedc|dBfd ecAF|
B2B2 Bdce|d2d2 dfeg|fbag fedc|B2B2B2:|
|:(3GFE|DFDF DFDF|EGEG EGEG|(ec)(cA) (ec)(cA)|(fd)(dB) (fd)(dB)|
DFDF DFDF|EGEG EGEG|(ec)(cA) (ec)(cA)|B2B2B2:|
W:
W:Cast off two Couple and up again ./. Lead down the
W:middle, up again and cast off ./: Allemand :/.
W:Hands six quite round.

